X: 7841
T: Coming Of Spring, The
R: jig
M: 6/8
K: Edorian
|:BEE B2A|B/c/dB BAG|F2F DFA|dfe dBA|
BEE B2A|Bef gfe|dBG FGA|1 BGE E2A:|2 BGE E2F||
|:GEF G2A|~B3 Bec|dAA BAG|FAF DEF|
GEF G2A|Bef gfe|dBG FGA|1 BGE E2F:|2 BGE E2f||
~g3 ege|Beg bag|f2d dcd|AFA def|
g3 e/f/ge|Beg bag|fed f/g/af|ge^d e2f|
~g3 ege|Beg b2g|f2d dcd|AFA def|
gfe fed|Bec d2e|dBG FGA|BGE E2A||

